X: 03087
T: WELDWOOD WALTZ
C: Bob McQuillen 23 Feb 77
B: Bob's Note Book 03 #87
R: waltz
%D:1977
Z: 2020 John Chambers <jc:trillian.mit.edu>
M: 3/4
L: 1/4
K: G
[| d2e | d2c | B3 | G3 | g2a | g2f | e3- | e3 | d2e | d2c | B3  | G3  | c2B | A2G | d3- | d2  |
|  d2e | d2c | B3 | G3 | g2a | g2f | e3- | e3 | d2e | d2c | B3  | G3  | A2G | B2A | G3- | G3 ||
|| d2B | c2A | B3 | G3 | B2G | A2F | G3- | G3 | c2B | c2A | B2c | d2B | c2d | e2g | a3- | aga |
|  b2g | a2f | g3 | d3 | b2g | a2f | g3- | g3 | g2f | e2g | d2B | G2B | A2G | B2A | G3- | G3 |]
%%begintext align
%% For Dr. and Mrs. Weld, Gertrude and Edric,
%% of Dublin, N.H., with love and affection.
%%endtext

%%sep 1 1 500

%%sep 1 1 500

